src/22/actions/view-calendar-wedding-anniversary.svg

<svg xmlns="http://www.w3.org/2000/svg" viewBox="0 0 22 22">
  <defs id="defs3051">
    <style type="text/css" id="current-color-scheme">
      .ColorScheme-Text {
        color:#5d656b;
      }
      .ColorScheme-Highlight {
        color:#3daee9;
      }
      </style>
  </defs>
 <path 
     style="fill:currentColor;fill-opacity:1;stroke:none" 
     d="M 6 3 C 6 3 5 2.99997 5 4 L 3 4 L 3 7 L 3 18 L 3 19 L 19 19 L 19 18 L 19 7 L 19 4 L 17 4 C 17 2.99997 16 3 16 3 L 13 3 C 13 3 12 2.99997 12 4 L 10 4 C 10 2.99997 9 3 9 3 L 6 3 z M 6 4 L 9 4 L 9 5 L 6 5 L 6 4 z M 13 4 L 16 4 L 16 5 L 13 5 L 13 4 z M 4 7 L 18 7 L 18 18 L 4 18 L 4 7 z M 9.5 9 C 7.561 9 6 10.561 6 12.5 C 6 14.439 7.561 16 9.5 16 C 10.039612 16 10.544436 15.870591 11 15.654297 C 11.455564 15.870591 11.960388 16 12.5 16 C 14.439 16 16 14.439 16 12.5 C 16 10.561 14.439 9 12.5 9 C 11.960388 9 11.455564 9.1294093 11 9.3457031 C 10.544436 9.1294093 10.039612 9 9.5 9 z M 9.5 10 C 9.6718015 10 9.8400737 10.018081 10.001953 10.050781 C 9.3837344 10.681388 9 11.543049 9 12.5 C 9 13.456951 9.3837344 14.318613 10.001953 14.949219 C 9.8400737 14.981919 9.6718015 15 9.5 15 C 8.115 15 7 13.885 7 12.5 C 7 11.115 8.115 10 9.5 10 z M 12.5 10 C 13.885 10 15 11.115 15 12.5 C 15 13.885 13.885 15 12.5 15 C 12.328199 15 12.159927 14.981919 11.998047 14.949219 C 12.616266 14.318612 13 13.456951 13 12.5 C 13 11.543049 12.616266 10.681387 11.998047 10.050781 C 12.159927 10.018081 12.328199 10 12.5 10 z M 11 10.507812 C 11.604994 10.963266 12 11.681048 12 12.5 C 12 13.318952 11.604994 14.036735 11 14.492188 C 10.395006 14.036733 10 13.318952 10 12.5 C 10 11.681048 10.395006 10.963265 11 10.507812 z "
     class="ColorScheme-Text"
     />
</svg>

<svg xmlns="http://www.w3.org/2000/svg" viewBox="0 0 22 22"><defs id="defs3051"><style type="text/css" id="current-color-scheme"></style></defs><path d="M6 3S5 3 5 4H3v15h16V4h-2c0-1-1-1-1-1h-3s-1 0-1 1h-2c0-1-1-1-1-1H6zm0 1h3v1H6V4zm7 0h3v1h-3V4zM4 7h14v11H4V7zm5.5 2A3.492 3.492 0 0 0 6 12.5C6 14.439 7.561 16 9.5 16c.54 0 1.044-.13 1.5-.346.456.217.96.346 1.5.346 1.939 0 3.5-1.561 3.5-3.5S14.439 9 12.5 9c-.54 0-1.044.13-1.5.346A3.482 3.482 0 0 0 9.5 9zm0 1c.172 0 .34.018.502.05A3.484 3.484 0 0 0 9 12.5c0 .957.384 1.819 1.002 2.45A2.495 2.495 0 0 1 7 12.5C7 11.115 8.115 10 9.5 10zm3 0c1.385 0 2.5 1.115 2.5 2.5a2.495 2.495 0 0 1-3.002 2.45A3.484 3.484 0 0 0 13 12.5c0-.957-.384-1.819-1.002-2.45.162-.032.33-.05.502-.05zm-1.5.508a2.485 2.485 0 0 1 0 3.984 2.485 2.485 0 0 1 0-3.984z" fill="currentColor" color="#5d656b"/></svg>
